X: 20167
T: Job Of Journeywork, The
R: hornpipe
M: 4/4
K: Dmajor
|:fe|d=cAG FGAB|=c2B=c A2 fe|dB=cA B2 AG|FGAF DEFG|
AGFD GFEF|DCDE FEFG|AddB =cdef|d2 dc d2:|
|:de|fefa gfed|=cde=c A2 de|fefa gfed|=cde=c A2 fg|
a2 fa gfed|dcde f2 ed|d=cAG FGAB|=c2B=c A2 fe|
dB=cA B2 AG|FGAF DEFG|AGFD GFEF|DCDE FEFG|
AddB =cdef|d2 dc d2:|

